X: 39613
T: Temperance
R: reel
M: 4/4
K: Gmajor
|:(3DEF|G2GF GABc|d2gf edBG|E2ED EFGA|BGAG FDED|
G2GF GABc|d2gf edBG|E2ED EFGA|BGAF G2:|
|:d2|efed e2eg|fgaf gfed|Bddd d2eg|fdfa gfed|
Beed e2eg|fgaf gfed|BAFD EFGA|BGAF G2:|

